images/cache/no-list.svg

<?xml version="1.0" encoding="UTF-8"?>
<svg width="400px" height="533px" viewBox="0 0 400 533" version="1.1" xmlns="http://www.w3.org/2000/svg" xmlns:xlink="http://www.w3.org/1999/xlink">
    <!-- Generator: Sketch 51 (57462) - http://www.bohemiancoding.com/sketch -->
    <title>no-list</title>
    <desc>Created with Sketch.</desc>
    <defs>
        <radialGradient cx="67.5976756%" cy="-35.1480994%" fx="67.5976756%" fy="-35.1480994%" r="142.322159%" gradientTransform="translate(0.675977,-0.351481),scale(1.000000,0.750469),rotate(110.567976),translate(-0.675977,0.351481)" id="radialGradient-1">
            <stop stop-color="#3F4245" offset="0%"></stop>
            <stop stop-color="#18191B" offset="100%"></stop>
        </radialGradient>
    </defs>
    <g id="Page-1" stroke="none" stroke-width="1" fill="none" fill-rule="evenodd">
        <g id="no-list" fill-rule="nonzero">
            <polygon id="Shape" fill="url(#radialGradient-1)" style="mix-blend-mode: overlay;" points="0 0 400 0 400 533 0 533"></polygon>
            <path d="M200,167 C144.771,167 100,211.771 100,267 C100,322.229 144.771,367 200,367 C255.229,367 300,322.229 300,267 C300,211.771 255.229,167 200,167 Z M210,322 L190,322 L190,303 L210,303 L210,322 Z M236.08,255.933 C233.451,260.093 227.824,265.761 219.198,272.938 C215.887875,275.355357 213.068328,278.380906 210.89,281.853 C209.549221,285.753553 209.026023,289.88842 209.353,294 L190.22,294 L190.22,288.963 C190.02,283.673 191.073,278.411 193.294,273.606 C196.445106,268.320175 200.60789,263.707811 205.544,260.033 C209.514937,257.054224 213.239023,253.759866 216.68,250.182 C218.491415,247.857856 219.471614,244.993661 219.464,242.047 C219.456311,237.964553 217.626915,234.098583 214.475,231.504 C210.746728,228.378056 205.970279,226.784953 201.112,227.047 C196.247624,226.903664 191.497337,228.535553 187.748,231.638 C183.811409,235.375787 181.226341,240.314147 180.398,245.679 L161,245.679 C161.458198,236.080196 165.560335,227.017585 172.47,220.339 C179.493,214.113 188.767,211 200.289,211 C212.42,211 222.071,214.172 229.243,220.517 C235.961244,225.921005 239.907793,234.04854 240,242.67 C240,247.376 238.638,251.982 236.08,255.932 L236.08,255.933 Z" id="Shape" fill-opacity="0.5" fill="#FFFFFF" style="mix-blend-mode: overlay;"></path>
        </g>
    </g>
</svg>

<?xml version="1.0" encoding="UTF-8"?>
<svg xmlns="http://www.w3.org/2000/svg" xmlns:xlink="http://www.w3.org/1999/xlink" width="400" height="533" viewBox="0 0 400 533">
  <defs>
    <radialGradient id="a" cy="0%" r="142.322%" fx="50%" fy="0%" gradientTransform="scale(-1 -.75047) rotate(-69.432 0 .722)">
      <stop offset="0%" stop-color="#3F4245"/>
      <stop offset="100%" stop-color="#18191B"/>
    </radialGradient>
  </defs>
  <g fill="none" fill-rule="nonzero">
    <path fill="url(#a)" d="M0 0h400v533H0z" style="mix-blend-mode:overlay"/>
    <path fill="#FFF" fill-opacity=".5" d="M200 167c-55.229 0-100 44.771-100 100s44.771 100 100 100 100-44.771 100-100-44.771-100-100-100zm10 155h-20v-19h20v19zm26.08-66.067c-2.629 4.16-8.256 9.828-16.882 17.005a32.286 32.286 0 0 0-8.308 8.915A30.041 30.041 0 0 0 209.353 294H190.22v-5.037c-.2-5.29.853-10.552 3.074-15.357a46.793 46.793 0 0 1 12.25-13.573 92.272 92.272 0 0 0 11.136-9.851 13.178 13.178 0 0 0 2.784-8.135 13.689 13.689 0 0 0-4.989-10.543 19.19 19.19 0 0 0-13.363-4.457 20.037 20.037 0 0 0-13.364 4.591 24.522 24.522 0 0 0-7.35 14.041H161a37.745 37.745 0 0 1 11.47-25.34c7.023-6.226 16.297-9.339 27.819-9.339 12.131 0 21.782 3.172 28.954 9.517A28.826 28.826 0 0 1 240 242.67c0 4.706-1.362 9.312-3.92 13.262z" style="mix-blend-mode:overlay"/>
  </g>
</svg>
